icons/2_Variations/GoTo fg.var.svg

<svg width="1024" height="1024" fill="none" xmlns="http://www.w3.org/2000/svg"><g clip-path="url(#a)"><path d="M512 1024c282.77 0 512-229.23 512-512S794.77 0 512 0 0 229.23 0 512s229.23 512 512 512Z" fill="#F9DE81"/><path d="m798.141 529.31-579.26 60.87 7 66.48 579.26-60.88-7-66.48v.01Zm-298.5-124.71a66.84 66.84 0 1 0 66.84 66.84 66.755 66.755 0 0 0-66.69-66.83l-.15-.01Zm0 104a37.134 37.134 0 0 1-20.639-6.25 37.139 37.139 0 1 1 51.498-51.526 37.138 37.138 0 0 1 6.261 20.636 37.141 37.141 0 0 1-37.12 37.12v.02Zm215.12-104a66.841 66.841 0 0 0-65.567 79.873 66.842 66.842 0 0 0 91.133 48.72 66.845 66.845 0 0 0 41.264-61.753 66.774 66.774 0 0 0-41.163-61.725 66.75 66.75 0 0 0-25.547-5.105l-.12-.01Zm0 104a37.141 37.141 0 1 1 37.14-37.14 37.142 37.142 0 0 1-37.14 37.12v.02Zm-40.76-107.87V371h-133.66v29.71h52v134h29.66v-134h52v.02Zm-355 37.13v29.71h41c-9.48 24.9-27.55 41-48.49 41a55.709 55.709 0 0 1-46.247-24.834 55.697 55.697 0 0 1 35.544-85.505 55.7 55.7 0 0 1 50.223 15.269l21.1-21.11a85.399 85.399 0 0 0-35.573-21.251 85.397 85.397 0 0 0-78.847 15.717 85.395 85.395 0 0 0-30.842 74.246 85.385 85.385 0 0 0 84.662 77.168c29.1 0 55.27-18.73 70.71-48.47v44.91h29.76v-96.85h-93Z" fill="#56595B"/></g><defs><clipPath id="a"><path fill="#fff" d="M0 0h1024v1024H0z"/></clipPath></defs></svg>

<svg width="1024" height="1024" viewBox="0 0 1024 1024" fill="none" xmlns="http://www.w3.org/2000/svg">
<g clip-path="url(#clip0_3_98)">
<path d="M512 1024C794.77 1024 1024 794.77 1024 512C1024 229.23 794.77 0 512 0C229.23 0 0 229.23 0 512C0 794.77 229.23 1024 512 1024Z" fill="#F9DE81"/>
<path d="M798.141 529.31L218.881 590.18L225.881 656.66L805.141 595.78L798.141 529.3V529.31ZM499.641 404.6C486.421 404.6 473.498 408.52 462.507 415.864C451.515 423.209 442.948 433.648 437.889 445.861C432.83 458.074 431.506 471.514 434.085 484.479C436.664 497.445 443.03 509.355 452.378 518.703C461.726 528.05 473.635 534.416 486.601 536.995C499.567 539.574 513.006 538.251 525.219 533.192C537.433 528.133 547.872 519.566 555.216 508.574C562.561 497.582 566.481 484.659 566.481 471.44C566.49 462.673 564.772 453.99 561.426 445.886C558.079 437.783 553.17 430.418 546.977 424.213C540.784 418.007 533.43 413.082 525.333 409.718C517.237 406.355 508.558 404.619 499.791 404.61L499.641 404.6ZM499.641 508.6C492.294 508.604 485.112 506.429 479.002 502.35C472.891 498.272 468.128 492.472 465.314 485.686C462.5 478.9 461.761 471.432 463.192 464.226C464.623 457.02 468.159 450.401 473.352 445.205C478.545 440.009 485.163 436.469 492.368 435.035C499.573 433.6 507.042 434.334 513.829 437.145C520.617 439.955 526.418 444.716 530.5 450.824C534.582 456.932 536.761 464.113 536.761 471.46C536.756 481.303 532.843 490.741 525.883 497.702C518.923 504.662 509.484 508.574 499.641 508.58V508.6ZM714.761 404.6C701.541 404.598 688.617 408.516 677.624 415.859C666.631 423.203 658.062 433.641 653.002 445.854C647.941 458.067 646.616 471.507 649.194 484.473C651.772 497.44 658.137 509.35 667.484 518.699C676.832 528.048 688.741 534.415 701.707 536.995C714.673 539.574 728.113 538.251 740.327 533.193C752.541 528.134 762.981 519.567 770.326 508.575C777.67 497.583 781.591 484.66 781.591 471.44C781.599 462.671 779.879 453.987 776.531 445.883C773.183 437.779 768.271 430.414 762.077 424.208C755.882 418.003 748.526 413.078 740.428 409.715C732.33 406.352 723.649 404.617 714.881 404.61L714.761 404.6ZM714.761 508.6C707.415 508.6 700.235 506.421 694.127 502.34C688.019 498.259 683.259 492.459 680.448 485.672C677.637 478.886 676.901 471.418 678.334 464.214C679.768 457.01 683.305 450.392 688.499 445.198C693.693 440.004 700.311 436.466 707.515 435.033C714.72 433.6 722.187 434.336 728.974 437.147C735.76 439.958 741.561 444.718 745.642 450.826C749.723 456.933 751.901 464.114 751.901 471.46C751.896 481.306 747.98 490.748 741.016 497.709C734.051 504.669 724.608 508.58 714.761 508.58V508.6ZM674.001 400.73V371H540.341V400.71H592.341V534.71H622.001V400.71H674.001V400.73ZM319.001 437.86V467.57H360.001C350.521 492.47 332.451 508.57 311.511 508.57C302.355 508.55 293.345 506.274 285.279 501.943C277.212 497.611 270.338 491.358 265.264 483.736C260.19 476.115 257.073 467.36 256.189 458.247C255.306 449.134 256.682 439.944 260.196 431.489C263.711 423.035 269.255 415.577 276.339 409.776C283.422 403.975 291.827 400.01 300.808 398.231C309.79 396.452 319.071 396.915 327.831 399.578C336.591 402.241 344.559 407.023 351.031 413.5L372.131 392.39C362.198 382.493 349.98 375.195 336.558 371.139C323.135 367.084 308.92 366.397 295.169 369.138C281.418 371.879 268.553 377.964 257.711 386.856C246.87 395.748 238.384 407.173 233.005 420.122C227.626 433.071 225.519 447.146 226.869 461.102C228.219 475.059 232.985 488.469 240.747 500.146C248.508 511.824 259.026 521.411 271.371 528.06C283.717 534.709 297.509 538.215 311.531 538.27C340.631 538.27 366.801 519.54 382.241 489.8V534.71H412.001V437.86H319.001Z" fill="#56595B"/>
</g>
<defs>
<clipPath id="clip0_3_98">
<rect width="1024" height="1024" fill="white"/>
</clipPath>
</defs>
</svg>
